assets/features/channel/east-asia/hilife.svg

<svg width="80" height="80" viewBox="0 0 80 80" fill="none" xmlns="http://www.w3.org/2000/svg">
<g clip-path="url(#clip0_2497_22814)">
<rect width="80" height="80" rx="8" fill="white"/>
<path d="M63.9016 30.5746C63.7029 28.9651 63.1068 27.5145 62.2126 26.1435C60.4839 23.4809 58.179 21.6131 55.1388 20.699C52.1583 19.785 49.1777 19.8049 46.1575 20.5401C44.1307 21.0368 42.3026 21.9111 40.713 23.3021C40.5143 23.4809 40.2957 23.62 40.097 23.7789C39.958 23.8982 39.8785 23.8584 39.7394 23.7591C36.9774 21.3349 33.7584 20.1029 30.0824 20.0433C28.3338 20.0036 26.625 20.2222 24.9559 20.7587C21.9158 21.7323 19.4916 23.5206 17.7033 26.1634C16.67 27.6934 16.1732 29.4221 16.0342 31.2502C15.8951 33.2173 16.1732 35.1249 17.0078 36.9132C17.7231 38.4233 18.6372 39.8142 19.5711 41.2052C22.2734 45.2189 25.4129 48.8353 28.9498 52.1139C32.2682 55.1938 35.8845 57.8962 39.799 60.1614C40.0176 60.2806 40.1964 60.2806 40.415 60.1614C41.7463 59.4063 43.018 58.5916 44.2897 57.7372C47.8663 55.2932 51.125 52.4915 54.1056 49.3321C56.5695 46.7291 58.7751 43.9473 60.6826 40.9071C61.1794 40.1123 61.5967 39.2777 62.1133 38.5028C63.7228 36.0588 64.2394 33.416 63.9016 30.5746ZM63.3254 34.1115C62.8286 36.5953 61.7358 38.8207 60.2852 40.8872C59.5898 41.8609 58.9738 42.8743 58.2783 43.8479C56.7086 46.0138 54.9799 48.0604 53.0922 49.9878C49.5553 53.6241 45.6408 56.7437 41.2893 59.3467C41.0309 59.5057 40.7528 59.6646 40.4944 59.8236C40.256 59.9627 40.0176 59.9627 39.7791 59.8236C36.1031 57.7173 32.7053 55.2137 29.5459 52.3722C26.1282 49.2923 23.0484 45.8747 20.4255 42.0794C19.2531 40.3905 18.2 38.6419 17.286 36.8138C16.054 34.3499 15.8553 31.7867 16.6899 29.1836C18.0212 25.0506 20.8428 22.4079 24.936 21.0567C26.466 20.5401 28.0358 20.3414 29.6453 20.3613C31.8111 20.3811 33.9373 20.699 35.9442 21.6131C37.3549 22.2489 38.6068 23.1232 39.6798 24.2359C39.8387 24.4148 39.9977 24.4148 40.1765 24.2558C42.2232 22.1297 44.7467 20.9574 47.608 20.4805C50.2507 20.0433 52.8537 20.2222 55.3773 21.0766C57.9405 21.931 59.9673 23.5405 61.5569 25.7064C62.5703 27.0774 63.2658 28.5677 63.4843 30.2765C63.6433 31.5482 63.5837 32.8199 63.3254 34.1115Z" fill="#D51518"/>
<path d="M62.3914 30.2368C62.1927 29.0843 61.7158 28.0511 61.1197 27.0576C59.4705 24.2956 57.0265 22.5271 53.9466 21.6727C52.198 21.176 50.4097 21.1164 48.6213 21.3151C46.6542 21.5336 44.8261 22.1297 43.1371 23.163C41.9847 23.8783 40.9713 24.7725 40.1169 25.8256C39.9976 25.9647 39.9182 26.0044 39.7989 25.8455C39.6797 25.6865 39.5208 25.5474 39.3817 25.3885C36.8184 22.6066 33.6193 21.2952 30.0228 21.2356C28.3537 21.2555 26.8634 21.4542 25.4327 21.9509C22.333 23.004 19.9088 24.8718 18.4583 27.8722C17.1071 30.674 17.0078 33.5353 18.3788 36.3568C19.3524 38.3439 20.5447 40.2117 21.8362 42.0199C24.9559 46.4112 28.6716 50.2859 32.8444 53.7036C35.0102 55.472 37.2953 57.1014 39.6996 58.5519C39.9976 58.7308 40.2957 58.7904 40.6136 58.5519C41.2296 58.1347 41.8853 57.7571 42.5212 57.3398C46.217 54.8759 49.595 52.0544 52.6947 48.8751C54.6222 46.8881 56.3906 44.8017 57.9802 42.5564C58.6558 41.6225 59.2321 40.6091 59.8878 39.6553C60.8415 38.2644 61.5966 36.8139 62.0735 35.2044C62.5305 33.5551 62.6895 31.9059 62.3914 30.2368ZM29.7843 42.6756C29.3074 42.9339 28.8306 42.9339 28.3537 42.6557C27.9563 42.4371 27.7774 42.0596 27.7576 41.6026C27.7377 41.0264 27.7377 40.47 27.7377 39.8938C27.7377 39.7149 27.7178 39.6354 27.4993 39.6553C27.2211 39.6752 26.9429 39.6752 26.6647 39.6752C26.5057 39.6752 26.4461 39.7149 26.4461 39.8938C26.466 40.4501 26.4064 40.9866 26.466 41.543C26.5455 42.2981 25.7705 43.0333 24.8565 42.8942C24.1412 42.7749 23.7636 42.3378 23.7438 41.5231C23.7239 40.4899 23.7438 39.4367 23.7239 38.4035C23.7239 37.3106 23.7239 36.2376 23.7239 35.1448C23.7239 35.0057 23.7239 34.8666 23.7438 34.7076C23.8431 34.0122 24.3399 33.6148 25.0552 33.6346C25.8103 33.6545 26.2872 34.0519 26.3666 34.7474C26.4461 35.4428 26.4064 36.1581 26.4263 36.8536C26.4461 37.3305 26.4263 37.3305 26.9031 37.3106C27.1018 37.3106 27.2807 37.2908 27.4794 37.2908C27.6582 37.3106 27.7377 37.2311 27.7377 37.0523C27.7377 36.3171 27.7973 35.5819 27.7377 34.8666C27.6781 34.0718 28.4928 33.4359 29.3273 33.575C30.0426 33.6942 30.4202 34.1711 30.4202 34.9063C30.4202 36.0191 30.4202 37.1318 30.4202 38.2445C30.4202 39.3374 30.4003 40.4104 30.4202 41.5033C30.4599 42.0397 30.2413 42.4173 29.7843 42.6756ZM29.685 31.2303C29.3273 30.2567 30.0029 29.2433 31.056 29.1837C31.6323 29.1439 32.1489 29.283 32.5662 29.7003C32.6854 29.8195 32.745 29.7798 32.8444 29.6804C33.5597 29.0446 34.5333 28.985 35.2089 29.5612C35.5666 29.8593 35.7057 30.2169 35.7255 30.6541C35.7255 30.9521 35.6461 31.2303 35.5268 31.5085C34.9109 32.7802 34.0962 33.8929 32.9636 34.7275C32.8245 34.8268 32.7251 34.8467 32.5662 34.7474C31.2547 33.8333 30.2413 32.7206 29.685 31.2303ZM34.0564 41.543C34.0564 42.2981 33.5597 42.8147 32.8245 42.8147C31.9303 42.8147 31.3739 42.3378 31.3739 41.543C31.3739 39.8739 31.374 38.2048 31.3938 36.5357C31.3938 35.9197 31.9104 35.4428 32.586 35.3832C33.4802 35.3037 34.0366 35.8204 34.0564 36.7145C34.0564 36.8735 34.0564 37.0126 34.0564 37.1715C34.0564 38.6221 34.0564 40.0726 34.0564 41.543ZM37.6331 41.0661C37.5735 41.4436 37.2953 41.7218 36.9376 41.7218C36.4607 41.7218 36.0037 41.7616 35.5467 41.7616C35.348 41.7616 35.1493 41.7417 34.9705 41.6423C34.7718 41.5231 34.6128 41.3642 34.6327 41.086C34.6525 40.8674 34.5929 40.629 34.5929 40.3905C34.5731 39.8143 34.891 39.5162 35.4672 39.5162C35.7057 39.5162 35.9441 39.5162 36.1826 39.5162C36.4607 39.5162 36.7191 39.5162 36.9972 39.5162C37.4145 39.5162 37.6728 39.7745 37.6728 40.1918C37.6331 40.4899 37.6728 40.768 37.6331 41.0661ZM41.7462 42.7551C40.9117 42.8544 40.0771 42.8743 39.2227 42.7948C38.6266 42.7352 38.2292 42.2583 38.1895 41.6423C38.0901 40.3905 38.1696 39.1387 38.1298 37.7676C38.1298 36.8536 38.1696 35.8204 38.11 34.807C38.0901 34.1314 38.8849 33.5551 39.4413 33.5551C40.1765 33.5551 40.7328 34.0718 40.7527 34.7871C40.7726 36.0787 40.7726 37.3901 40.7925 38.6817C40.7925 39.1983 40.8123 39.6951 40.8123 40.2117C40.8123 40.3508 40.8521 40.4104 41.011 40.3905C41.2892 40.3706 41.5873 40.3706 41.8654 40.4303C42.4019 40.5495 42.7795 41.0661 42.7795 41.6225C42.7596 42.1788 42.3225 42.6756 41.7462 42.7551ZM43.157 32.4424C43.4948 31.9854 43.9717 31.7668 44.5877 31.7668C45.5414 31.8066 46.2965 32.6014 46.1574 33.5154C46.0779 34.0718 45.462 34.6679 44.8261 34.807C44.2101 34.9461 43.4948 34.6679 43.1371 34.1115C42.7795 33.5949 42.7994 32.959 43.157 32.4424ZM57.1258 39.6752C56.9271 40.013 56.5893 40.1521 56.2316 40.1719C55.5759 40.2316 54.9401 40.1521 54.2844 40.1719C53.7876 40.1918 53.271 40.1719 52.7146 40.1719C52.9133 40.4303 53.0723 40.6091 53.3902 40.6091C54.0459 40.5892 54.7016 40.6091 55.3375 40.6091C55.4766 40.6091 55.6157 40.629 55.7548 40.6687C56.3509 40.8475 56.7085 41.2847 56.6688 41.8013C56.6291 42.457 56.2317 42.914 55.5759 43.0333C55.2977 43.073 55.0196 43.1127 54.7414 43.073C54.0857 42.9935 53.4101 43.1127 52.7544 42.9339C51.5224 42.616 50.5686 41.9603 50.052 40.7482C50.0123 40.629 49.9725 40.5097 49.9328 40.3905C49.893 40.2713 49.8334 40.2117 49.6943 40.2117C49.3963 40.2117 49.3963 40.2117 49.3963 40.5097C49.3963 42.4769 49.3764 44.4242 49.3963 46.3913C49.3963 46.9477 49.1777 47.3252 48.7008 47.5637C48.2239 47.8021 47.7272 47.8021 47.2702 47.5239C46.8728 47.2855 46.6741 46.9278 46.6741 46.4509C46.6741 45.6164 46.6542 44.7818 46.6542 43.9473C46.6542 42.7749 46.6343 41.6225 46.6343 40.4501C46.6343 40.2713 46.5747 40.2315 46.4157 40.2514C46.2965 40.2713 46.1773 40.2713 46.0581 40.2514C45.7998 40.2117 45.7402 40.3309 45.7402 40.5495C45.7402 40.9071 45.7799 41.2847 45.7203 41.6423C45.6408 42.2981 45.0844 42.7749 44.4088 42.7749C43.773 42.7749 43.2365 42.2782 43.1968 41.6423C43.1371 40.5892 43.1371 39.5361 43.157 38.483C43.1769 37.8074 43.1769 37.1318 43.1968 36.4562C43.1968 35.8601 43.7134 35.3236 44.3095 35.264C45.1639 35.1845 45.7998 35.7409 45.7998 36.5953C45.7998 36.9331 45.7799 37.2709 45.76 37.5888C45.76 37.7279 45.7998 37.7676 45.9389 37.7676C46.6144 37.7875 46.6144 37.7875 46.6144 37.1119C46.6144 35.8998 46.6144 34.6877 46.6144 33.4757C46.6144 32.6411 47.0119 32.1046 47.8464 32.045C48.8598 31.9655 49.8732 31.9457 50.8865 32.045C51.423 32.1046 51.8403 32.6014 51.8999 33.0981C51.9397 33.5949 51.6416 34.0519 51.1051 34.2705C50.7475 34.4294 50.3699 34.3897 49.9924 34.3897C49.3565 34.3897 49.3565 34.3897 49.3565 35.0255C49.3565 35.8601 49.3565 36.6748 49.3565 37.5093C49.3565 37.5888 49.3168 37.7279 49.4758 37.708C49.6148 37.6882 49.7937 37.8272 49.8533 37.5689C50.2706 36.0191 51.3436 35.1845 52.8338 34.8666C54.3638 34.5288 55.6951 34.9858 56.7284 36.1581C57.6623 37.1517 57.7815 38.5624 57.1258 39.6752Z" fill="#D51518"/>
<path d="M54.8408 37.7079C54.0858 37.7079 53.3903 37.7079 52.7147 37.7079C52.8141 37.4099 53.2115 37.1516 53.6089 37.1317C54.1056 37.1118 54.503 37.2509 54.8408 37.7079Z" fill="#D51518"/>
</g>
<rect x="0.5" y="0.5" width="79" height="79" rx="7.5" stroke="#EEEEEE"/>
<defs>
<clipPath id="clip0_2497_22814">
<rect width="80" height="80" rx="8" fill="white"/>
</clipPath>
</defs>
</svg>

<svg xmlns="http://www.w3.org/2000/svg" width="80" height="80" fill="none" viewBox="0 0 80 80"><g clip-path="url(#a)"><rect width="80" height="80" fill="#fff" rx="8"/><path fill="#d51518" d="M63.902 30.575c-.2-1.61-.795-3.06-1.69-4.431-1.728-2.663-4.033-4.53-7.073-5.445-2.98-.914-5.961-.894-8.982-.159-2.026.497-3.854 1.371-5.444 2.762-.199.179-.417.318-.616.477-.139.12-.218.08-.358-.02-2.762-2.424-5.98-3.656-9.657-3.716-1.748-.04-3.457.18-5.126.716-3.04.973-5.464 2.762-7.253 5.404-1.033 1.53-1.53 3.26-1.669 5.087-.139 1.967.14 3.875.974 5.663.715 1.51 1.63 2.901 2.563 4.292 2.702 4.014 5.842 7.63 9.379 10.909a60.4 60.4 0 0 0 10.849 8.047c.219.12.397.12.616 0a60 60 0 0 0 3.875-2.424 60 60 0 0 0 9.816-8.405c2.463-2.603 4.67-5.385 6.577-8.425.496-.795.914-1.63 1.43-2.404 1.61-2.444 2.126-5.087 1.789-7.928m-.577 3.537c-.496 2.483-1.59 4.709-3.04 6.775-.695.974-1.311 1.987-2.007 2.96a54 54 0 0 1-5.186 6.14 57.7 57.7 0 0 1-11.803 9.36c-.258.159-.536.318-.795.477a.67.67 0 0 1-.715 0c-3.676-2.107-7.074-4.61-10.233-7.452-3.418-3.08-6.498-6.497-9.12-10.293a43 43 0 0 1-3.14-5.265c-1.232-2.464-1.43-5.027-.596-7.63 1.331-4.133 4.153-6.776 8.246-8.127 1.53-.517 3.1-.716 4.71-.696 2.165.02 4.291.338 6.298 1.252 1.41.636 2.663 1.51 3.736 2.623.159.179.318.179.496.02 2.047-2.126 4.57-3.299 7.432-3.776 2.643-.437 5.246-.258 7.77.597 2.563.854 4.59 2.464 6.179 4.63 1.013 1.37 1.709 2.86 1.927 4.57.16 1.271.1 2.543-.159 3.834"/><path fill="#d51518" d="M62.391 30.237c-.198-1.153-.675-2.186-1.271-3.18-1.65-2.761-4.093-4.53-7.173-5.384-1.749-.497-3.537-.557-5.326-.358-1.967.219-3.795.815-5.484 1.848a12.1 12.1 0 0 0-3.02 2.663c-.12.139-.199.178-.318.02-.12-.16-.278-.299-.417-.457-2.564-2.782-5.763-4.094-9.36-4.153-1.668.02-3.159.218-4.59.715-3.099 1.053-5.523 2.92-6.974 5.921-1.35 2.802-1.45 5.663-.08 8.485.974 1.987 2.167 3.855 3.458 5.663 3.12 4.391 6.836 8.266 11.008 11.684a59 59 0 0 0 6.856 4.848c.298.179.596.238.914 0 .616-.417 1.271-.795 1.907-1.212a63 63 0 0 0 10.174-8.465c1.927-1.987 3.696-4.073 5.285-6.319.676-.933 1.252-1.947 1.908-2.9.954-1.392 1.709-2.842 2.186-4.452.457-1.649.616-3.298.317-4.967M29.784 42.676c-.477.258-.953.258-1.43-.02-.398-.219-.577-.596-.596-1.053-.02-.577-.02-1.133-.02-1.71 0-.178-.02-.258-.239-.238-.278.02-.556.02-.834.02-.16 0-.219.04-.219.219.02.556-.04 1.093.02 1.649.08.755-.696 1.49-1.61 1.351-.715-.12-1.092-.556-1.112-1.37-.02-1.034 0-2.087-.02-3.12v-3.26c0-.138 0-.277.02-.436.1-.696.596-1.093 1.311-1.073.755.02 1.232.417 1.312 1.112s.04 1.411.06 2.107c.02.477 0 .477.476.457.199 0 .378-.02.576-.02.18.02.259-.06.259-.239 0-.735.06-1.47 0-2.185-.06-.795.755-1.431 1.59-1.292.715.12 1.092.596 1.092 1.331v3.339c0 1.092-.02 2.165 0 3.258.04.537-.179.914-.636 1.173m-.099-11.446c-.358-.973.318-1.987 1.371-2.046.576-.04 1.093.099 1.51.516.12.12.179.08.278-.02.716-.635 1.69-.695 2.365-.119.358.298.497.656.516 1.093 0 .298-.079.576-.198.855-.616 1.271-1.43 2.384-2.563 3.218-.14.1-.239.12-.398.02-1.311-.914-2.325-2.026-2.881-3.517m4.371 10.313c0 .755-.496 1.272-1.231 1.272-.895 0-1.451-.477-1.451-1.272 0-1.67 0-3.338.02-5.007 0-.616.516-1.093 1.192-1.153.894-.08 1.45.437 1.47 1.331zm3.577-.477c-.06.378-.338.656-.695.656-.477 0-.934.04-1.391.04-.199 0-.398-.02-.576-.12-.2-.119-.358-.278-.338-.556.02-.219-.04-.457-.04-.695-.02-.577.298-.875.874-.875h1.53c.417 0 .676.259.676.676-.04.298 0 .576-.04.874m4.113 1.69c-.834.098-1.669.118-2.523.039-.596-.06-.994-.537-1.033-1.153-.1-1.251-.02-2.503-.06-3.874 0-.914.04-1.948-.02-2.961-.02-.676.775-1.252 1.331-1.252.735 0 1.292.517 1.312 1.232.02 1.292.02 2.603.04 3.895 0 .516.02 1.013.02 1.53 0 .139.04.198.198.178.278-.02.576-.02.854.04.537.12.914.636.914 1.193a1.21 1.21 0 0 1-1.033 1.132m1.411-10.314c.338-.457.815-.675 1.43-.675.954.04 1.71.834 1.57 1.748-.08.557-.695 1.153-1.33 1.292a1.64 1.64 0 0 1-1.69-.696c-.358-.516-.338-1.152.02-1.669m13.969 7.233c-.199.338-.537.477-.894.497-.656.06-1.292-.02-1.948 0-.496.02-1.013 0-1.57 0 .2.258.358.437.676.437.656-.02 1.312 0 1.947 0q.21 0 .418.06c.596.178.953.616.914 1.132-.04.656-.437 1.113-1.093 1.232-.278.04-.556.08-.835.04-.655-.08-1.33.04-1.987-.14-1.232-.317-2.185-.973-2.702-2.185l-.12-.357c-.039-.12-.099-.18-.238-.18-.298 0-.298 0-.298.299 0 1.967-.02 3.914 0 5.881 0 .557-.218.934-.695 1.173-.477.238-.974.238-1.43-.04q-.597-.358-.597-1.073c0-.835-.02-1.67-.02-2.504 0-1.172-.02-2.325-.02-3.497 0-.179-.06-.219-.218-.199q-.18.03-.358 0c-.258-.04-.318.08-.318.299 0 .357.04.735-.02 1.092-.08.656-.636 1.133-1.311 1.133a1.216 1.216 0 0 1-1.212-1.133 42 42 0 0 1-.04-3.159c.02-.676.02-1.351.04-2.027 0-.596.516-1.132 1.112-1.192.855-.08 1.49.477 1.49 1.331 0 .338-.02.676-.039.994 0 .139.04.179.179.179.675.02.675.02.675-.656v-3.636c0-.835.398-1.371 1.232-1.431 1.014-.08 2.027-.1 3.04 0 .537.06.954.556 1.014 1.053.04.497-.258.954-.795 1.172-.357.16-.735.12-1.113.12-.636 0-.636 0-.636.636v2.483c0 .08-.04.219.12.199.139-.02.318.12.377-.14.418-1.549 1.49-2.383 2.98-2.701 1.53-.338 2.862.119 3.895 1.291a2.92 2.92 0 0 1 .398 3.517"/><path fill="#d51518" d="M54.84 37.708h-2.125c.1-.298.496-.556.894-.576.497-.02.894.119 1.232.576"/></g><rect width="79" height="79" x=".5" y=".5" stroke="#eee" rx="7.5"/><defs><clipPath id="a"><rect width="80" height="80" fill="#fff" rx="8"/></clipPath></defs></svg>
